X: 101
T: 7 Les Ormeaux
T: les Ormeaux
B: Robert Landrin "Potpourri fran\,cois des contre-danse ancienne tel quil se danse chez la Reine ..." 1760 p.10 #1 dance 03 #7
S: http://memory.loc.gov/cgi-bin/query/D?musdibib:2:./temp/~ammem_EbRS:
Z: 2014 John Chambers <jc:trillian.mit.edu>
M: 6/8
L: 1/8
K: G
% - - - - - - - - - - - - - - - - - - - - - - - - -
!segno!BAB |\
G2B A2A | E3 FEF | D2D G2A | !+!B2A BAB |\
G2B A2A | E3 FEF | DcB AGF | G3 |]
"2f"dB"^en rondeau"c |\
dBc dcB | !+!A2G dBc | dBc dcB | !+!A3 A2B |\
cAB cAB | c3 edc | Bcd dcB | !+!A2 !segno!y|]
% - - - - - - - - - - - - - - - - - - - - - - - - -

%%sep 1 1 500
%%sep 1 1 500
